X:0241
T:The merry Plowman.
M:2/4
L:1/16
Q:1/4=104
I: :: ::
Z:Jack Campin * www.campin.me.uk * 2009
K:G
G2| B2d2d2e2        |d2B2A2G2   | B2d2d2e2  |d4 G3A |\
    B2d2d2e2        |d2B2A2G2   |(Bc)d2 efge|d4 G2 :|
ef|(gfed)   (edcB)  |c2B2 A2(ef)| gfed  BcdB|g4 d2ef|\
   (gf)(ed) (ed)(cB)|g2B2A2c2   | Bcd2  efge|d4 G2 :|

